components/Common/Svg/svgs/plane.svg

<svg width="40" height="40" viewBox="0 0 40 40" fill="none" xmlns="http://www.w3.org/2000/svg">
<path d="M17.5013 7.5V15.2783C17.5016 15.4483 17.4587 15.6155 17.3764 15.7642C17.2942 15.913 17.1754 16.0383 17.0313 16.1283L4.63797 23.8733C4.49433 23.9631 4.37586 24.0879 4.29365 24.236C4.21144 24.3841 4.16819 24.5506 4.16797 24.72V26.22C4.16796 26.372 4.20262 26.5221 4.26932 26.6587C4.33601 26.7953 4.43298 26.915 4.55286 27.0085C4.67273 27.102 4.81236 27.167 4.96111 27.1984C5.10986 27.2299 5.26383 27.227 5.4113 27.19L16.258 24.4767C16.4054 24.4397 16.5594 24.4368 16.7082 24.4682C16.8569 24.4997 16.9965 24.5646 17.1164 24.6582C17.2363 24.7517 17.3333 24.8713 17.4 25.0079C17.4666 25.1446 17.5013 25.2946 17.5013 25.4467V30.38C17.5012 30.5224 17.4706 30.6631 17.4117 30.7927C17.3527 30.9224 17.2668 31.0379 17.1596 31.1317L13.5596 34.2817C12.7963 34.9517 13.398 36.2 14.3963 36.0183L19.823 35.0333C19.9409 35.012 20.0617 35.012 20.1796 35.0333L25.6063 36.0183C26.6046 36.2017 27.2063 34.9517 26.443 34.2833L22.843 31.1333C22.7356 31.0394 22.6495 30.9236 22.5906 30.7937C22.5317 30.6637 22.5012 30.5227 22.5013 30.38V25.4467C22.5014 25.2948 22.536 25.145 22.6026 25.0085C22.6692 24.872 22.766 24.7525 22.8857 24.659C23.0054 24.5655 23.1447 24.5005 23.2933 24.4689C23.4418 24.4373 23.5956 24.44 23.743 24.4767L34.593 27.19C34.7403 27.2267 34.8941 27.2294 35.0427 27.1978C35.1912 27.1662 35.3306 27.1012 35.4503 27.0077C35.5699 26.9142 35.6667 26.7947 35.7333 26.6582C35.7999 26.5217 35.8346 26.3719 35.8346 26.22V24.72C35.8344 24.5506 35.7912 24.3841 35.709 24.236C35.6267 24.0879 35.5083 23.9631 35.3646 23.8733L22.9713 16.1267C22.8274 16.0367 22.7088 15.9117 22.6266 15.7633C22.5444 15.6149 22.5012 15.448 22.5013 15.2783V7.5C22.5013 6.83696 22.2379 6.20107 21.7691 5.73223C21.3002 5.26339 20.6643 5 20.0013 5C19.3383 5 18.7024 5.26339 18.2335 5.73223C17.7647 6.20107 17.5013 6.83696 17.5013 7.5V7.5Z" stroke="#161616" stroke-width="2" stroke-linecap="round" stroke-linejoin="round"/>
</svg>

<svg width="40" height="40" viewBox="0 0 40 40" fill="none" xmlns="http://www.w3.org/2000/svg"><path d="M17.501 7.5v7.778a1 1 0 0 1-.47.85L4.638 23.873a1 1 0 0 0-.47.847v1.5a1 1 0 0 0 1.243.97l10.847-2.713a1 1 0 0 1 1.243.97v4.933a1 1 0 0 1-.341.752l-3.6 3.15c-.764.67-.162 1.918.836 1.736l5.427-.985c.118-.021.239-.021.357 0l5.426.985c.999.184 1.6-1.066.837-1.735l-3.6-3.15a1 1 0 0 1-.342-.753v-4.933a1 1 0 0 1 1.242-.97l10.85 2.713a1 1 0 0 0 1.242-.97v-1.5a1 1 0 0 0-.47-.847L22.97 16.127a1 1 0 0 1-.47-.849V7.5a2.5 2.5 0 0 0-5 0v0Z" stroke="#161616" stroke-width="2" stroke-linecap="round" stroke-linejoin="round"/></svg>
